**harm	**harte	**silbe	**rhyme	**timestamp	**phrase	**leadinstrument	**kern
*M4/4	*M4/4	*	*	*	*	*	*
*	*	*	*	*	*	*	*
*	*	*	*	*	*	*	*
*e:	*e:	*	*	*e:	*e:	*e:	*e:
*	*	*	*	*	*	*	*
*	*	*	*	*	*	*	*
1r;	N	.	.	0	.	r	1r;
=1	=1	=1	=1	=1	=1	=1	=1
*>Letter>A	*>Letter>A	*>Letter>A	*>Letter>A	*>Letter>A	*>Letter>A	*>Letter>A	*>Letter>A
*>Label>Intro	*>Label>Intro	*>Label>Intro	*>Label>Intro	*>Label>Intro	*>Label>Intro	*>Label>Intro	*>Label>Intro
1i7	E:min7	.	.	0.348	newline	guitar	1E 1g 1b 1dd#
=2	=2	=2	=2	=2	=2	=2	=2
2i7	E:min9	.	.	2.351	.	guitar	1E 1g 1b 1dd#
2i7	E:min7	.	.	3.353	.	guitar	2E 2g 2b 2dd#
=3	=3	=3	=3	=3	=3	=3	=3
1i7	E:min7	.	.	4.354	.	guitar	1E 1g 1b 1dd#
=4	=4	=4	=4	=4	=4	=4	=4
2i7	E:min9	.	.	6.357	.	guitar	1E 1g 1b 1dd#
2i7	E:min7	.	.	7.359	.	guitar	2E 2g 2b 2dd#
=5	=5	=5	=5	=5	=5	=5	=5
1i7	E:min7	.	.	8.36	newline	guitar	1E 1g 1b 1dd#
=6	=6	=6	=6	=6	=6	=6	=6
2i7	E:min9	.	.	10.285	.	guitar	1E 1g 1b 1dd#
2i7	E:min7	.	.	11.248	.	guitar	2E 2g 2b 2dd#
=7	=7	=7	=7	=7	=7	=7	=7
1i7	E:min7	.	.	12.21	.	guitar	1E 1g 1b 1dd#
=8	=8	=8	=8	=8	=8	=8	=8
2i7	E:min9	.	.	14.136	.	guitar	2E 2g 2b 2dd#
2i7	E:min7	.	.	15.098	.	guitar	2E 2g 2b 2dd#
.	.	I	.	.	.	.	.
.	.	get	.	.	.	.	.
.	.	a	.	.	.	.	.
=9	=9	=9	=9	=9	=9	=9	=9
*>Letter>B	*>Letter>B	*>Letter>B	*>Letter>B	*>Letter>B	*>Letter>B	*>Letter>B	*>Letter>B
*>Label>Verse	*>Label>Verse	*>Label>Verse	*>Label>Verse	*>Label>Verse	*>Label>Verse	*>Label>Verse	*>Label>Verse
1i7	E:min7	con-	.	16.061	newline	voice	1E 1g 1b 1dd#
.	.	-stant	.	.	.	.	.
.	.	bu	.	.	.	.	.
.	.	_	.	.	.	.	.
.	.	sy	.	.	.	.	.
.	.	sig-	.	.	.	.	.
=10	=10	=10	=10	=10	=10	=10	=10
2i7	E:min9	-nal	.	17.962	.	voice	2E 2g 2b 2dd#
.	.	.	.	.	.	.	.
.	.	.	.	.	.	.	.
2i7	E:min7	.	.	18.913	.	voice	2E 2g 2b 2dd#
.	.	when	.	.	.	.	.
.	.	I	.	.	.	.	.
=11	=11	=11	=11	=11	=11	=11	=11
.	.	_	.	.	.	.	.
1i7	E:min7	call	.	19.864	.	voice	1E 1g 1b 1dd#
.	.	you	.	.	.	.	.
.	.	_	.	.	.	.	.
.	.	on	.	.	.	.	.
.	.	_	.	.	.	.	.
.	.	the	.	.	.	.	.
.	.	phone	A	.	.	.	.
=12	=12	=12	=12	=12	=12	=12	=12
2i7	E:min9	_	.	21.765	.	voice	2E 2g 2b 2dd#
.	.	.	.	.	.	.	.
2i7	E:min7	.	.	22.716	.	voice	2E 2g 2b 2dd#
.	.	I	.	.	.	.	.
.	.	get	.	.	.	.	.
.	.	a	.	.	.	.	.
=13	=13	=13	=13	=13	=13	=13	=13
1i7	E:min7	strong,	.	23.667	newline	voice	1E 1g 1b 1dd#
.	.	un-	.	.	.	.	.
.	.	_	.	.	.	.	.
.	.	-ea	.	.	.	.	.
.	.	_	.	.	.	.	.
.	.	sy	.	.	.	.	.
.	.	fee	.	.	.	.	.
=14	=14	=14	=14	=14	=14	=14	=14
2i7	E:min9	_	.	25.564	.	voice	2E 2g 2b 2dd#
.	.	ling	.	.	.	.	.
.	.	.	.	.	.	.	.
2i7	E:min7	.	.	26.513	.	voice	2E 2g 2b 2dd#
.	.	you're	.	.	.	.	.
.	.	not	.	.	.	.	.
=15	=15	=15	=15	=15	=15	=15	=15
1i7	E:min7	sit-	.	27.462	.	voice	1E 1g 1b 1dd#
.	.	_	.	.	.	.	.
.	.	-ting	.	.	.	.	.
.	.	_	.	.	.	.	.
.	.	there	.	.	.	.	.
.	.	_	.	.	.	.	.
.	.	a-	.	.	.	.	.
.	.	-lone	A	.	.	.	.
=16	=16	=16	=16	=16	=16	=16	=16
2i7	E:min9	_	.	29.36	.	voice	2E 2g 2b 2dd#
.	.	.	.	.	.	.	.
2i7	E:min7	.	.	30.308	.	voice	2E 2g 2b 2dd#
.	.	I'm	.	.	.	.	.
.	.	ha-	.	.	.	.	.
.	.	-ving	.	.	.	.	.
=17	=17	=17	=17	=17	=17	=17	=17
1iv7	A:min7	nas-	.	31.257	newline	voice	1A 1cc 1ee 1gg
.	.	-ty,	.	.	.	.	.
.	.	nas	.	.	.	.	.
.	.	_	.	.	.	.	.
.	.	ty	.	.	.	.	.
.	.	vi	.	.	.	.	.
=18	=18	=18	=18	=18	=18	=18	=18
1iv7	A:min7	_	.	33.166	.	voice	1A 1cc 1ee 1gg
.	.	sions	.	.	.	.	.
.	.	.	.	.	.	.	.
.	.	.	.	.	.	.	.
.	.	and	.	.	.	.	.
.	.	ba-	.	.	.	.	.
.	.	-by,	.	.	.	.	.
=19	=19	=19	=19	=19	=19	=19	=19
.	.	_	.	.	.	.	.
1i7	E:min7	you're	.	35.075	.	voice	1E 1g 1b 1dd#
.	.	in	.	.	.	.	.
.	.	ev-	.	.	.	.	.
.	.	-'ry	.	.	.	.	.
.	.	_	.	.	.	.	.
.	.	one,	B	.	.	.	.
.	.	y-	.	.	.	.	.
=20	=20	=20	=20	=20	=20	=20	=20
1i7	E:min7	-yeah	.	36.985	.	voice	1E 1g 1b 1dd#
.	.	_	.	.	.	.	.
.	.	_	.	.	.	.	.
.	.	.	.	.	.	.	.
.	.	.	.	.	.	.	.
.	.	And	.	.	.	.	.
.	.	I'm	.	.	.	.	.
=21	=21	=21	=21	=21	=21	=21	=21
1iv7	A:min7	so	.	38.894	newline	voice	1A 1cc 1ee 1gg
.	.	a-	.	.	.	.	.
.	.	-fraid	.	.	.	.	.
.	.	_	.	.	.	.	.
.	.	I'm	.	.	.	.	.
.	.	gon-	.	.	.	.	.
.	.	-na	.	.	.	.	.
=22	=22	=22	=22	=22	=22	=22	=22
1iv7	A:min7	find	.	40.802	.	voice	1A 1cc 1ee 1gg
.	.	you	.	.	.	.	.
.	.	with	.	.	.	.	.
.	.	.	.	.	.	.	.
.	.	.	.	.	.	.	.
.	.	a	.	.	.	.	.
=23	=23	=23	=23	=23	=23	=23	=23
.	.	_	.	.	.	.	.
1iv7	B-:1	so-	.	42.71	.	voice	1A 1cc 1ee 1gg
.	.	-called	.	.	.	.	.
.	.	_	.	.	.	.	.
.	A:1	smo	.	43.664	.	voice	.
.	.	_	.	.	.	.	.
.	.	king	.	.	.	.	.
.	.	gun	B	.	.	.	.
=24	=24	=24	=24	=24	=24	=24	=24
*>Letter>A	*>Letter>A	*>Letter>A	*>Letter>A	*>Letter>A	*>Letter>A	*>Letter>A	*>Letter>A
*>Label>Trans	*>Label>Trans	*>Label>Trans	*>Label>Trans	*>Label>Trans	*>Label>Trans	*>Label>Trans	*>Label>Trans
1i7	E:min7	_	.	44.618	newline	guitar	1E 1g 1b 1dd#
.	.	.	.	.	.	.	.
.	.	.	.	.	.	.	.
=25	=25	=25	=25	=25	=25	=25	=25
2i7	E:min9	.	.	46.531	.	guitar	1E 1g 1b 1dd#
2i7	E:min7	.	.	47.487	.	guitar	2E 2g 2b 2dd#
=26	=26	=26	=26	=26	=26	=26	=26
1i7	E:min7	.	.	48.444	.	guitar	1E 1g 1b 1dd#
=27	=27	=27	=27	=27	=27	=27	=27
2i7	E:min9	.	.	50.357	.	guitar	1E 1g 1b 1dd#
2i7	E:min7	.	.	51.314	.	guitar	2E 2g 2b 2dd#
=28	=28	=28	=28	=28	=28	=28	=28
*>Letter>B	*>Letter>B	*>Letter>B	*>Letter>B	*>Letter>B	*>Letter>B	*>Letter>B	*>Letter>B
*>Label>Verse	*>Label>Verse	*>Label>Verse	*>Label>Verse	*>Label>Verse	*>Label>Verse	*>Label>Verse	*>Label>Verse
.	.	_	.	.	.	.	.
1i7	E:min7	May-	.	52.27	newline	voice	1E 1g 1b 1dd#
.	.	-be	.	.	.	.	.
.	.	you	.	.	.	.	.
.	.	_	.	.	.	.	.
.	.	wan	.	.	.	.	.
.	.	_	.	.	.	.	.
.	.	na	.	.	.	.	.
.	.	end	.	.	.	.	.
.	.	_	.	.	.	.	.
=29	=29	=29	=29	=29	=29	=29	=29
2i7	E:min9	_	.	54.175	.	voice	2E 2g 2b 2dd#
.	.	it	.	.	.	.	.
.	.	.	.	.	.	.	.
2i7	E:min7	.	.	55.127	.	voice	2E 2g 2b 2dd#
.	.	You've	.	.	.	.	.
.	.	had	.	.	.	.	.
.	.	your	.	.	.	.	.
=30	=30	=30	=30	=30	=30	=30	=30
.	.	_	.	.	.	.	.
1i7	E:min7	fill	.	56.079	.	voice	1E 1g 1b 1dd#
.	.	with	.	.	.	.	.
.	.	_	.	.	.	.	.
.	.	my	.	.	.	.	.
.	.	_	.	.	.	.	.
.	.	kin-	.	.	.	.	.
.	.	-da	.	.	.	.	.
.	.	fun	B	.	.	.	.
=31	=31	=31	=31	=31	=31	=31	=31
2i7	E:min9	_	.	57.984	.	voice	2E 2g 2b 2dd#
.	.	.	.	.	.	.	.
2i7	E:min7	.	.	58.936	.	voice	2E 2g 2b 2dd#
.	.	But	.	.	.	.	.
.	.	you	.	.	.	.	.
=32	=32	=32	=32	=32	=32	=32	=32
1i7	E:min7	don't	.	59.888	newline	voice	1E 1g 1b 1dd#
.	.	know	.	.	.	.	.
.	.	how	.	.	.	.	.
.	.	_	.	.	.	.	.
.	.	to	.	.	.	.	.
.	.	tell	.	.	.	.	.
=33	=33	=33	=33	=33	=33	=33	=33
2i7	E:min9	_	.	61.789	.	voice	2E 2g 2b 2dd#
.	.	me	.	.	.	.	.
.	.	.	.	.	.	.	.
2i7	E:min7	.	.	62.739	.	voice	2E 2g 2b 2dd#
.	.	and	.	.	.	.	.
.	.	you	.	.	.	.	.
=34	=34	=34	=34	=34	=34	=34	=34
1i7	E:min7	know	.	63.689	.	voice	1E 1g 1b 1dd#
.	.	_	.	.	.	.	.
.	.	that	.	.	.	.	.
.	.	I'm	.	.	.	.	.
.	.	not	.	.	.	.	.
.	.	that	.	.	.	.	.
.	.	dumb	B	.	.	.	.
=35	=35	=35	=35	=35	=35	=35	=35
2i7	E:min9	_	.	65.59	.	voice	2E 2g 2b 2dd#
.	.	.	.	.	.	.	.
2i7	E:min7	.	.	66.54	.	voice	2E 2g 2b 2dd#
.	.	I	.	.	.	.	.
.	.	put	.	.	.	.	.
=36	=36	=36	=36	=36	=36	=36	=36
1iv7	A:min7	one	.	67.49	newline	voice	1A 1cc 1ee 1gg
.	.	and	.	.	.	.	.
.	.	two	.	.	.	.	.
.	.	_	.	.	.	.	.
.	.	to-	.	.	.	.	.
.	.	-ge	.	.	.	.	.
=37	=37	=37	=37	=37	=37	=37	=37
1iv7	A:min7	_	.	69.395	.	voice	1A 1cc 1ee 1gg
.	.	ther	.	.	.	.	.
.	.	.	.	.	.	.	.
.	.	.	.	.	.	.	.
.	.	and	.	.	.	.	.
.	.	you	.	.	.	.	.
=38	=38	=38	=38	=38	=38	=38	=38
1i7	E:min7	know	.	71.299	.	voice	1E 1g 1b 1dd#
.	.	that's	.	.	.	.	.
.	.	not	.	.	.	.	.
.	.	an	.	.	.	.	.
.	.	e	.	.	.	.	.
.	.	_	.	.	.	.	.
.	.	ven	.	.	.	.	.
.	.	sum	B	.	.	.	.
=39	=39	=39	=39	=39	=39	=39	=39
1i7	E:min7	_	.	73.204	.	voice	1E 1g 1b 1dd#
.	.	.	.	.	.	.	.
.	.	.	.	.	.	.	.
.	.	and	.	.	.	.	.
.	.	I	.	.	.	.	.
=40	=40	=40	=40	=40	=40	=40	=40
.	.	_	.	.	.	.	.
1iv7	A:min7	know	.	75.108	newline	voice	1A 1cc 1ee 1gg
.	.	just	.	.	.	.	.
.	.	where	.	.	.	.	.
.	.	_	.	.	.	.	.
.	.	to	.	.	.	.	.
=41	=41	=41	=41	=41	=41	=41	=41
1iv7	A:min7	catch	.	77.013	.	voice	1A 1cc 1ee 1gg
.	.	you	.	.	.	.	.
.	.	with	.	.	.	.	.
.	.	.	.	.	.	.	.
.	.	.	.	.	.	.	.
.	.	that	.	.	.	.	.
=42	=42	=42	=42	=42	=42	=42	=42
.	.	_	.	.	.	.	.
1iv7	B-:1	well-	.	78.918	.	voice	1A 1cc 1ee 1gg
.	.	-known	.	.	.	.	.
.	.	_	.	.	.	.	.
.	A:1	smo	.	79.871	.	voice	.
.	.	_	.	.	.	.	.
.	.	king	.	.	.	.	.
.	.	gun	B	.	.	.	.
=43	=43	=43	=43	=43	=43	=43	=43
*>Letter>A	*>Letter>A	*>Letter>A	*>Letter>A	*>Letter>A	*>Letter>A	*>Letter>A	*>Letter>A
*>Label>Trans	*>Label>Trans	*>Label>Trans	*>Label>Trans	*>Label>Trans	*>Label>Trans	*>Label>Trans	*>Label>Trans
1i7	E:min7	_	.	80.823	newline	guitar	1E 1g 1b 1dd#
.	.	.	.	.	.	.	.
.	.	.	.	.	.	.	.
=44	=44	=44	=44	=44	=44	=44	=44
2i7	E:min9	.	.	82.728	.	guitar	1E 1g 1b 1dd#
2i7	E:min7	.	.	83.681	.	guitar	2E 2g 2b 2dd#
=45	=45	=45	=45	=45	=45	=45	=45
1i7	E:min7	.	.	84.633	.	guitar	1E 1g 1b 1dd#
=46	=46	=46	=46	=46	=46	=46	=46
2i7	E:min9	.	.	86.538	.	guitar	1E 1g 1b 1dd#
2i7	E:min7	.	.	87.491	.	guitar	2E 2g 2b 2dd#
=47	=47	=47	=47	=47	=47	=47	=47
*>Letter>B2	*>Letter>B2	*>Letter>B2	*>Letter>B2	*>Letter>B2	*>Letter>B2	*>Letter>B2	*>Letter>B2
*>Label>Solo	*>Label>Solo	*>Label>Solo	*>Label>Solo	*>Label>Solo	*>Label>Solo	*>Label>Solo	*>Label>Solo
1i7	E:min7	.	.	88.443	newline	guitar	1E 1g 1b 1dd#
=48	=48	=48	=48	=48	=48	=48	=48
2i7	E:min9	.	.	90.353	.	guitar	1E 1g 1b 1dd#
2i7	E:min7	.	.	91.308	.	guitar	2E 2g 2b 2dd#
=49	=49	=49	=49	=49	=49	=49	=49
1i7	E:min7	.	.	92.263	.	guitar	1E 1g 1b 1dd#
=50	=50	=50	=50	=50	=50	=50	=50
2i7	E:min9	.	.	94.173	.	guitar	1E 1g 1b 1dd#
2i7	E:min7	.	.	95.128	.	guitar	2E 2g 2b 2dd#
=51	=51	=51	=51	=51	=51	=51	=51
1i7	E:min7	.	.	96.083	newline	guitar	1E 1g 1b 1dd#
=52	=52	=52	=52	=52	=52	=52	=52
2i7	E:min9	.	.	97.988	.	guitar	1E 1g 1b 1dd#
2i7	E:min7	.	.	98.94	.	guitar	2E 2g 2b 2dd#
=53	=53	=53	=53	=53	=53	=53	=53
1i7	E:min7	.	.	99.892	.	guitar	1E 1g 1b 1dd#
=54	=54	=54	=54	=54	=54	=54	=54
2i7	E:min9	.	.	101.797	.	guitar	1E 1g 1b 1dd#
2i7	E:min7	.	.	102.749	.	guitar	2E 2g 2b 2dd#
=55	=55	=55	=55	=55	=55	=55	=55
1iv7	A:min7	.	.	103.701	newline	guitar	1A 1cc 1ee 1gg
=56	=56	=56	=56	=56	=56	=56	=56
1iv7	A:min7	.	.	105.624	.	guitar	1A 1cc 1ee 1gg
=57	=57	=57	=57	=57	=57	=57	=57
1i7	E:min7	.	.	107.547	.	guitar	1E 1g 1b 1dd#
=58	=58	=58	=58	=58	=58	=58	=58
1i7	E:min7	.	.	109.47	.	guitar	1E 1g 1b 1dd#
=59	=59	=59	=59	=59	=59	=59	=59
1iv7	A:min7	.	.	111.394	newline	guitar	1A 1cc 1ee 1gg
=60	=60	=60	=60	=60	=60	=60	=60
1iv7	A:min7	.	.	113.27	.	guitar	1A 1cc 1ee 1gg
=61	=61	=61	=61	=61	=61	=61	=61
1iv7	B-:1	.	.	115.146	.	guitar	1A 1cc 1ee 1gg
.	A:1	.	.	116.084	.	guitar	.
=62	=62	=62	=62	=62	=62	=62	=62
*>Letter>A	*>Letter>A	*>Letter>A	*>Letter>A	*>Letter>A	*>Letter>A	*>Letter>A	*>Letter>A
*>Label>Trans	*>Label>Trans	*>Label>Trans	*>Label>Trans	*>Label>Trans	*>Label>Trans	*>Label>Trans	*>Label>Trans
1i7	E:min7	.	.	117.022	newline	guitar	1E 1g 1b 1dd#
=63	=63	=63	=63	=63	=63	=63	=63
2i7	E:min9	.	.	118.934	.	guitar	1E 1g 1b 1dd#
2i7	E:min7	.	.	119.891	.	guitar	2E 2g 2b 2dd#
=64	=64	=64	=64	=64	=64	=64	=64
1i7	E:min7	.	.	120.847	.	guitar	1E 1g 1b 1dd#
=65	=65	=65	=65	=65	=65	=65	=65
2i7	E:min9	.	.	122.759	.	guitar	1E 1g 1b 1dd#
2i7	E:min7	.	.	123.716	.	guitar	2E 2g 2b 2dd#
=66	=66	=66	=66	=66	=66	=66	=66
*>Letter>B2	*>Letter>B2	*>Letter>B2	*>Letter>B2	*>Letter>B2	*>Letter>B2	*>Letter>B2	*>Letter>B2
*>Label>Solo	*>Label>Solo	*>Label>Solo	*>Label>Solo	*>Label>Solo	*>Label>Solo	*>Label>Solo	*>Label>Solo
1i7	E:min7	.	.	124.672	newline	guitar	1E 1g 1b 1dd#
=67	=67	=67	=67	=67	=67	=67	=67
2i7	E:min9	.	.	126.587	.	guitar	1E 1g 1b 1dd#
2i7	E:min7	.	.	127.545	.	guitar	2E 2g 2b 2dd#
=68	=68	=68	=68	=68	=68	=68	=68
1i7	E:min7	.	.	128.502	.	guitar	1E 1g 1b 1dd#
=69	=69	=69	=69	=69	=69	=69	=69
2i7	E:min9	.	.	130.418	.	guitar	1E 1g 1b 1dd#
2i7	E:min7	.	.	131.375	.	guitar	2E 2g 2b 2dd#
=70	=70	=70	=70	=70	=70	=70	=70
1i7	E:min7	.	.	132.333	newline	guitar	1E 1g 1b 1dd#
=71	=71	=71	=71	=71	=71	=71	=71
2i7	E:min9	.	.	134.239	.	guitar	1E 1g 1b 1dd#
2i7	E:min7	.	.	135.193	.	guitar	2E 2g 2b 2dd#
=72	=72	=72	=72	=72	=72	=72	=72
1i7	E:min7	.	.	136.146	.	guitar	1E 1g 1b 1dd#
=73	=73	=73	=73	=73	=73	=73	=73
2i7	E:min9	.	.	138.052	.	guitar	1E 1g 1b 1dd#
2i7	E:min7	.	.	139.006	.	guitar	2E 2g 2b 2dd#
=74	=74	=74	=74	=74	=74	=74	=74
1iv7	A:min7	.	.	139.959	newline	guitar	1A 1cc 1ee 1gg
=75	=75	=75	=75	=75	=75	=75	=75
1iv7	A:min7	.	.	141.869	.	guitar	1A 1cc 1ee 1gg
=76	=76	=76	=76	=76	=76	=76	=76
1i7	E:min7	.	.	143.779	.	guitar	1E 1g 1b 1dd#
=77	=77	=77	=77	=77	=77	=77	=77
1i7	E:min7	.	.	145.688	.	guitar	1E 1g 1b 1dd#
=78	=78	=78	=78	=78	=78	=78	=78
1iv7	A:min7	.	.	147.598	newline	guitar	1A 1cc 1ee 1gg
=79	=79	=79	=79	=79	=79	=79	=79
1iv7	A:min7	.	.	149.508	.	guitar	1A 1cc 1ee 1gg
=80	=80	=80	=80	=80	=80	=80	=80
1iv7	B-:1	.	.	151.418	.	guitar	1A 1cc 1ee 1gg
.	A:1	.	.	152.373	.	guitar	.
=81	=81	=81	=81	=81	=81	=81	=81
*>Letter>A	*>Letter>A	*>Letter>A	*>Letter>A	*>Letter>A	*>Letter>A	*>Letter>A	*>Letter>A
*>Label>Trans	*>Label>Trans	*>Label>Trans	*>Label>Trans	*>Label>Trans	*>Label>Trans	*>Label>Trans	*>Label>Trans
1i7	E:min7	.	.	153.329	newline	guitar	1E 1g 1b 1dd#
=82	=82	=82	=82	=82	=82	=82	=82
2i7	E:min9	.	.	155.232	.	guitar	1E 1g 1b 1dd#
2i7	E:min7	.	.	156.183	.	guitar	2E 2g 2b 2dd#
=83	=83	=83	=83	=83	=83	=83	=83
1i7	E:min7	.	.	157.135	.	guitar	1E 1g 1b 1dd#
=84	=84	=84	=84	=84	=84	=84	=84
2i7	E:min9	.	.	159.038	.	guitar	2E 2g 2b 2dd#
2i7	E:min7	.	.	159.99	.	guitar	2E 2g 2b 2dd#
.	.	.	.	.	.	.	.
.	.	I'm	.	.	.	.	.
=85	=85	=85	=85	=85	=85	=85	=85
*>Letter>B	*>Letter>B	*>Letter>B	*>Letter>B	*>Letter>B	*>Letter>B	*>Letter>B	*>Letter>B
*>Label>Verse	*>Label>Verse	*>Label>Verse	*>Label>Verse	*>Label>Verse	*>Label>Verse	*>Label>Verse	*>Label>Verse
1i7	E:min7	stan	.	160.942	newline	voice	1E 1g 1b 1dd#
.	.	_	.	.	.	.	.
.	.	ding	.	.	.	.	.
.	.	_	.	.	.	.	.
.	.	here,	.	.	.	.	.
.	.	_	.	.	.	.	.
.	.	be-	.	.	.	.	.
.	.	-wil	.	.	.	.	.
=86	=86	=86	=86	=86	=86	=86	=86
2i7	E:min9	_	.	162.849	.	voice	2E 2g 2b 2dd#
.	.	dered	.	.	.	.	.
.	.	.	.	.	.	.	.
2i7	E:min7	.	.	163.803	.	voice	2E 2g 2b 2dd#
.	.	I	.	.	.	.	.
.	.	can't	.	.	.	.	.
.	.	re-	.	.	.	.	.
=87	=87	=87	=87	=87	=87	=87	=87
.	.	_	.	.	.	.	.
1i7	E:min7	-mem-	.	164.757	.	voice	1E 1g 1b 1dd#
.	.	-ber	.	.	.	.	.
.	.	just	.	.	.	.	.
.	.	_	.	.	.	.	.
.	.	what	.	.	.	.	.
.	.	_	.	.	.	.	.
.	.	I've	.	.	.	.	.
.	.	done	B	.	.	.	.
=88	=88	=88	=88	=88	=88	=88	=88
2i7	E:min9	_	.	166.664	.	voice	2E 2g 2b 2dd#
.	.	.	.	.	.	.	.
2i7	E:min7	.	.	167.618	.	voice	2E 2g 2b 2dd#
.	.	I	.	.	.	.	.
.	.	can	.	.	.	.	.
=89	=89	=89	=89	=89	=89	=89	=89
.	.	_	.	.	.	.	.
1i7	E:min7	hear	.	168.572	newline	voice	1E 1g 1b 1dd#
.	.	the	.	.	.	.	.
.	.	_	.	.	.	.	.
.	.	si	.	.	.	.	.
.	.	_	.	.	.	.	.
.	.	rens	.	.	.	.	.
.	.	s	.	.	.	.	.
.	.	whi	.	.	.	.	.
=90	=90	=90	=90	=90	=90	=90	=90
2i7	E:min9	_	.	170.479	.	voice	2E 2g 2b 2dd#
.	.	ning	.	.	.	.	.
.	.	.	.	.	.	.	.
2i7	E:min7	.	.	171.432	.	voice	2E 2g 2b 2dd#
.	.	my	.	.	.	.	.
.	.	_	.	.	.	.	.
.	.	eyes	.	.	.	.	.
=91	=91	=91	=91	=91	=91	=91	=91
.	.	_	.	.	.	.	.
1i7	E:min7	blin-	.	172.385	.	voice	1E 1g 1b 1dd#
.	.	-ded	.	.	.	.	.
.	.	by	.	.	.	.	.
.	.	_	.	.	.	.	.
.	.	_	.	.	.	.	.
.	.	the	.	.	.	.	.
.	.	sun	B	.	.	.	.
=92	=92	=92	=92	=92	=92	=92	=92
2i7	E:min9	_	.	174.292	.	voice	2E 2g 2b 2dd#
.	.	.	.	.	.	.	.
2i7	E:min7	.	.	175.245	.	voice	2E 2g 2b 2dd#
.	.	.	.	.	.	.	.
.	.	I	.	.	.	.	.
=93	=93	=93	=93	=93	=93	=93	=93
1iv7	A:min7	know	.	176.199	newline	voice	1A 1cc 1ee 1gg
.	.	that	.	.	.	.	.
.	.	I	.	.	.	.	.
.	.	_	.	.	.	.	.
.	.	should	.	.	.	.	.
.	.	be	.	.	.	.	.
.	.	_	.	.	.	.	.
.	.	_	.	.	.	.	.
.	.	run	.	.	.	.	.
=94	=94	=94	=94	=94	=94	=94	=94
1iv7	A:min7	_	.	178.101	.	voice	1A 1cc 1ee 1gg
.	.	ning	.	.	.	.	.
.	.	.	.	.	.	.	.
.	.	.	.	.	.	.	.
.	.	my	.	.	.	.	.
.	.	heart's	.	.	.	.	.
=95	=95	=95	=95	=95	=95	=95	=95
1i7	E:min7	bea-	.	180.002	.	voice	1E 1g 1b 1dd#
.	.	-ting	.	.	.	.	.
.	.	.	.	.	.	.	.
.	.	just	.	.	.	.	.
.	.	_	.	.	.	.	.
.	.	like	.	.	.	.	.
.	.	.	.	.	.	.	.
.	.	a	.	.	.	.	.
=96	=96	=96	=96	=96	=96	=96	=96
1i7	E:min7	drum	B	181.904	.	voice	1E 1g 1b 1dd#
.	.	_	.	.	.	.	.
.	.	.	.	.	.	.	.
.	.	.	.	.	.	.	.
.	.	Now	.	.	.	.	.
.	.	they've	.	.	.	.	.
=97	=97	=97	=97	=97	=97	=97	=97
.	.	_	.	.	.	.	.
.	.	_	.	.	.	.	.
1iv7	A:min7	knocked	.	183.806	newline	voice	1A 1cc 1ee 1gg
.	.	me	.	.	.	.	.
.	.	_	.	.	.	.	.
.	.	down	.	.	.	.	.
.	.	_	.	.	.	.	.
.	.	.	.	.	.	.	.
.	.	and	.	.	.	.	.
=98	=98	=98	=98	=98	=98	=98	=98
1iv7	A:min7	ta-	.	185.715	.	voice	1A 1cc 1ee 1gg
.	.	-ken	.	.	.	.	.
.	.	it	.	.	.	.	.
.	.	.	.	.	.	.	.
.	.	.	.	.	.	.	.
.	.	that	.	.	.	.	.
=99	=99	=99	=99	=99	=99	=99	=99
.	.	_	.	.	.	.	.
1iv7	B-:1	still-	.	187.623	.	voice	1A 1cc 1ee 1gg
.	.	-hot	.	.	.	.	.
.	A:1	smo	.	188.578	.	voice	.
.	.	_	.	.	.	.	.
.	.	king	.	.	.	.	.
.	.	gun	B	.	.	.	.
=100	=100	=100	=100	=100	=100	=100	=100
*>Letter>A	*>Letter>A	*>Letter>A	*>Letter>A	*>Letter>A	*>Letter>A	*>Letter>A	*>Letter>A
*>Label>Outro	*>Label>Outro	*>Label>Outro	*>Label>Outro	*>Label>Outro	*>Label>Outro	*>Label>Outro	*>Label>Outro
1i7	E:min7	_	.	189.532	newline	guitar	1E 1g 1b 1dd#
.	.	.	.	.	.	.	.
.	.	.	.	.	.	.	.
=101	=101	=101	=101	=101	=101	=101	=101
1i7	E:min7	.	.	191.451	.	guitar	1E 1g 1b 1dd#
.	.	.	.	.	.	.	.
.	.	.	.	.	.	.	.
.	.	Yeah,	.	.	.	.	.
=102	=102	=102	=102	=102	=102	=102	=102
1i7	E:min7	_	.	193.369	.	guitar	1E 1g 1b 1dd#
.	.	yeah	.	.	.	.	.
.	.	.	.	.	.	.	.
=103	=103	=103	=103	=103	=103	=103	=103
.	.	_	.	.	.	.	.
1i7	E:min7	Still-	.	195.288	.	guitar	1E 1g 1b 1dd#
.	.	-hot	.	.	.	.	.
.	.	smo	.	.	.	.	.
.	.	_	.	.	.	.	.
.	.	king	.	.	.	.	.
.	.	gun	B	.	.	.	.
=104	=104	=104	=104	=104	=104	=104	=104
1i7	E:min7	_	.	197.206	newline	guitar	1E 1g 1b 1dd#
.	.	.	.	.	.	.	.
.	.	.	.	.	.	.	.
=105	=105	=105	=105	=105	=105	=105	=105
1i7	E:min7	.	.	199.119	.	guitar	1E 1g 1b 1dd#
.	.	.	.	.	.	.	.
.	.	.	.	.	.	.	.
.	.	They've	.	.	.	.	.
=106	=106	=106	=106	=106	=106	=106	=106
1i7	E:min7	ta-	.	201.032	.	guitar	1E 1g 1b 1dd#
.	.	-ken	.	.	.	.	.
.	.	it	.	.	.	.	.
.	.	.	.	.	.	.	.
=107	=107	=107	=107	=107	=107	=107	=107
.	.	_	.	.	.	.	.
1i7	E:min7	Still-	.	202.944	.	guitar	1E 1g 1b 1dd#
.	.	-hot	.	.	.	.	.
.	.	smo	.	.	.	.	.
.	.	_	.	.	.	.	.
.	.	king	.	.	.	.	.
.	.	gun	B	.	.	.	.
=108	=108	=108	=108	=108	=108	=108	=108
1i7	E:min7	_	.	204.857	newline	guitar	1E 1g 1b 1dd#
.	.	.	.	.	.	.	.
.	.	.	.	.	.	.	.
=109	=109	=109	=109	=109	=109	=109	=109
1i7	E:min7	.	.	206.767	.	guitar	1E 1g 1b 1dd#
.	.	.	.	.	.	.	.
.	.	_	.	.	.	.	.
.	.	_	.	.	.	.	.
.	.	Oh,	.	.	.	.	.
.	.	_	.	.	.	.	.
.	.	they've	.	.	.	.	.
.	.	ta-	.	.	.	.	.
=110	=110	=110	=110	=110	=110	=110	=110
1i7	E:min7	-ken	.	208.676	.	guitar	1E 1g 1b 1dd#
.	.	it	.	.	.	.	.
.	.	.	.	.	.	.	.
.	.	.	.	.	.	.	.
.	.	_	.	.	.	.	.
.	.	That	.	.	.	.	.
=111	=111	=111	=111	=111	=111	=111	=111
.	.	_	.	.	.	.	.
1i7	E:min7	still-	.	210.586	.	guitar	1E 1g 1b 1dd#
.	.	-hot	.	.	.	.	.
.	.	smo	.	.	.	.	.
.	.	_	.	.	.	.	.
.	.	king	.	.	.	.	.
.	.	gun	B	.	.	.	.
=112	=112	=112	=112	=112	=112	=112	=112
1i7	E:min7	_	.	212.495	newline	guitar	1E 1g 1b 1dd#
.	.	.	.	.	.	.	.
.	.	.	.	.	.	.	.
.	.	.	.	.	.	.	.
.	.	They've	.	.	.	.	.
=113	=113	=113	=113	=113	=113	=113	=113
.	.	_	.	.	.	.	.
1i7	E:min7	knocked	.	214.396	.	guitar	1E 1g 1b 1dd#
.	.	me	.	.	.	.	.
.	.	down	.	.	.	.	.
.	.	.	.	.	.	.	.
.	.	.	.	.	.	.	.
.	.	And	.	.	.	.	.
=114	=114	=114	=114	=114	=114	=114	=114
.	.	_	.	.	.	.	.
1i7	E:min7	ta-	.	216.297	.	guitar	1E 1g 1b 1dd#
.	.	-ken	.	.	.	.	.
.	.	_	.	.	.	.	.
.	.	it	.	.	.	.	.
.	.	.	.	.	.	.	.
=115	=115	=115	=115	=115	=115	=115	=115
1i7	E:min7	.	.	218.198	.	guitar	1E 1g 1b 1dd#
.	.	Oh	.	.	.	.	.
.	.	_	.	.	.	.	.
.	.	_	.	.	.	.	.
.	.	_	.	.	.	.	.
.	.	(vocalising)	.	.	.	.	.
.	.	_	.	.	.	.	.
=116	=116	=116	=116	=116	=116	=116	=116
1i7	E:min7	_	.	220.098	newline	guitar	1E 1g 1b 1dd#
.	.	_	.	.	.	.	.
.	.	.	.	.	.	.	.
.	.	.	.	.	.	.	.
=117	=117	=117	=117	=117	=117	=117	=117
1i7	E:min7	.	.	222.013	.	guitar	1E 1g 1b 1dd#
=118	=118	=118	=118	=118	=118	=118	=118
1i7	E:min7	.	.	223.927	.	guitar	1E 1g 1b 1dd#
=119	=119	=119	=119	=119	=119	=119	=119
1i7	E:min7	.	.	225.842	.	guitar	1E 1g 1b 1dd#
.	.	.	.	.	.	.	.
.	.	Oh!	.	.	.	.	.
.	.	_	.	.	.	.	.
=120	=120	=120	=120	=120	=120	=120	=120
*>Label>>Fadeout	*>Label>>Fadeout	*>Label>>Fadeout	*>Label>>Fadeout	*>Label>>Fadeout	*>Label>>Fadeout	*>Label>>Fadeout	*>Label>>Fadeout
1i7	E:min7	_	.	227.756	newline	guitar	1E 1g 1b 1dd#
.	.	_	.	.	.	.	.
.	.	_	.	.	.	.	.
.	.	.	.	.	.	.	.
=121	=121	=121	=121	=121	=121	=121	=121
1i7	E:min7	.	.	229.657	.	guitar	1E 1g 1b 1dd#
=122	=122	=122	=122	=122	=122	=122	=122
1i7	E:min7	.	.	231.558	.	guitar	1E 1g 1b 1dd#
=123	=123	=123	=123	=123	=123	=123	=123
1i7	E:min7	.	.	233.459	.	guitar	1E 1g 1b 1dd#
=124	=124	=124	=124	=124	=124	=124	=124
1i7	E:min7	.	.	235.36	.	guitar	1E 1g 1b 1dd#
1r;	N	.	.	237.261	.	r	1r;
1r;	N	.	.	240.797	.	r	1r;
*-	*-	*-	*-	*-	*-	*-	*-
!!!BillboardChartDate: 1987/03/07, 1987/03/07
!!!BillboardPeak: 22, 22
!!!BillboardWeeksOnChart: 14, 14
!!!COC: The Robert Cray Band
!!!ENC: Nathaniel Condit-Schultz
!!!EST: Awating manual error checking and editing.
!!!OTL: Smoking Gun
!!!RDF**harte: Chris Harte's syntax, used by MIREX
!!!RDF**harmony: **recip + pitch class of root + harmonic quality
!!!RDF**leadinstrument: original McGill primary instrumentation annotation
!!!RDF**phrase: newline = linebreak in original McGill transcription
!!!RDF**timestamp: McGill audio timestamp in seconds
!!!RDT: 2017/01/12/
!!!SampleActualRank: 56, 56
!!!SampleID#: 55, 329
!!!SampleTargetRank: 56, 58
!!!MBID: dbe879ad-103a-4c3c-902e-60374bcb91c8
